X: 39
T:Nancy's Choice. JB.39
M:4/4
L:1/8
Q:180
S:James Biggins MS, Leeds, 1779.
R:Reel
O:England
A:Yorkshire
Z:vmp.Nick Barber & Chris Partington
K:A
c/d/|eca2ecdf|ecBAB3D|CEAB cAdB|ecacB3c/d/|!
eca2ecdf|ecBAB3D|CEAB cfed|c2"tr"B2A2z:|!
|:c|BEdB cAec|BEdB"tr"c3A|BEdB cAec|(3agf (3edc "tr"B3c|!
BGdB cAec|BEdB"tr"c3A|BEdB cfed|c2"tr"B2A2:|]
